build/img/sprite/icon-arrow-left.svg

<svg width="10" height="17" viewBox="0 0 10 17" fill="none" xmlns="http://www.w3.org/2000/svg">
<path d="M0.470814 7.29199C0.555523 7.206 0.647415 7.13343 0.744097 7.07031L7.21188 0.481925C7.84285 -0.16054 8.86654 -0.160845 9.49781 0.48223C10.1291 1.125 10.1291 2.16752 9.49781 2.8109L3.9277 8.48514L9.52655 14.189C10.1578 14.8317 10.1578 15.8739 9.52655 16.5176C9.21076 16.8396 8.79679 17 8.38373 17C7.97066 17 7.5564 16.8396 7.24091 16.5176L0.744097 9.89874C0.647415 9.83562 0.554924 9.76305 0.470814 9.67706C0.148144 9.34836 -0.00750451 8.91538 0.000277895 8.48453C-0.00750451 8.05367 0.148144 7.62099 0.470814 7.29199Z" fill="black"/>
</svg>

<svg width="10" height="17" fill="none" xmlns="http://www.w3.org/2000/svg"><path d="M.47 7.292c.086-.086.177-.159.274-.222L7.212.482a1.596 1.596 0 012.286 0 1.668 1.668 0 010 2.329l-5.57 5.674 5.599 5.704a1.668 1.668 0 010 2.329 1.596 1.596 0 01-2.286 0L.744 9.898a1.612 1.612 0 01-.273-.22A1.653 1.653 0 010 8.484a1.647 1.647 0 01.47-1.193z" fill="#000"/></svg>
